X: 21312
T: Shanbuie
%R: jig
B: James Oswald "The Caledonian Pocket Companion" v.2 p.131 #2
Z: 2018 John Chambers <jc:trillian.mit.edu>
M: 6/8
L: 1/8
K: G
|:"_Lively"\
G(B/c/)d dBd | ege dBG | G(B/c/)d dBd | Te3 g3 |\
G(B/c/)d dBd | ege dBG | gbg faf | e3 g3 :|
|:\
gbg faf | ege dBG | gbg faf | Te3 g3 |\
(g/a/b)g faf | ege dBG | G(B/c/)d dBd | e3 g3 :|
|:\
BGB dBG | cAc ecA | BGB dBd | e3 g3 |\
G2g fdf | ece dBG | g2e afd | e3 g3 :|
|:\
(bg)g (ge)e | (ed)d (dB)B | (ba)g (ba)g | Te3 g3 |\
(b2g) (a2e) | (g2d) (e2g) | G(B/c/)d dBd | e3 g3 :|
|:\
TB2G (B/c/d)G | (B/c/d)G Te2d | B2G ABd | e3 g3 |\
TB2G (B/c/d)G | (e/f/)ge (f/g/)af | (g/a/)bg f/g/af | Te3 g3 :|
|:\
(ba)g (ag)e | (ge)d (ed)B | (ba)g (af)d | e3 g3 |\
(ba)g (ag)e |(ge)d TB2g | G(B/c/)d dBd | Te3 g3 :|


